**kern
*part1
*staff1
*clefC3
*k[b-e-a-]
8r
=2
1%0r
=3
1%0r
=4
1%0r
=5
1%0r
=6
2r
4r
8r
8g
=7
16ccL
16gJ
8g
16gL
16e-yJ
8d
16e-yL
16dJ
16e-yL
16dJ
8c
8f
=8
16e-yL
16anJ
8a
8a
8e-y
16fL
16bnJ
8b
8b
8f
=9
16gL
16ccJ
8cc
8cc
=-
*-
